[ [ 'sin', {arg freq=0.1, phase=0; SinOsc.ar(freq, phase).map } ], [ 'saw', {arg freq=0.1; Saw.ar(freq).map } ], [ 'lfn2', {arg freq=0.1; LFNoise2.ar(freq).map } ], [ 'lfn1', {arg freq=0.1; LFNoise1.ar(freq).map } ], [ 'lfn0', {arg freq=0.1; LFNoise0.ar(freq).map } ], [ 'cspl', {arg freq=0.1, a=1, b=1.99, xi=0; CuspL.ar(freq,a,b,xi).map } ], [ 'cspn', {arg freq=0.1, a=1, b=1.99, xi=0; CuspN.ar(freq,a,b,xi).map } ], [ 'henn', {arg freq=0.1, a=1.4, b=0.3, x0=0, x1=0; HenonN.ar(freq,a,b,x0,x1).map } ], [ 'henl', {arg freq=0.1, a=1.4, b=0.3, x0=0, x1=0; HenonL.ar(freq,a,b,x0,x1).map } ], [ 'henc', {arg freq=0.1, a=1.4, b=0.3, x0=0, x1=0; HenonC.ar(freq,a,b,x0,x1).map } ], [ 'lfp', {arg freq=0.1, iphase=0, width=0.5; LFPulse.ar(freq, iphase, width).map } ], [ 'lfs', {arg freq=0.1, iphase=0; LFSaw.ar(freq, iphase).map } ], [ 'lfc', {arg freq=0.1, iphase=0; LFCub.ar(freq, iphase).map } ], [ 'lft', {arg freq=0.1, iphase=0; LFTri.ar(freq, iphase).map } ] ]